apps/site/public/icons/companies/about/altimeter.svg

<svg xmlns="http://www.w3.org/2000/svg" fill="none" viewBox="0 0 178 29" height="29" width="178">
<path stroke-width="0.792" stroke="white" fill="white" d="M38.5711 25.6785H32.6483V8.17914C32.6483 7.90994 32.9175 7.50609 33.1194 7.30418H29.8214C30.0234 7.50609 30.2926 7.90994 30.2926 8.17914V25.6785C30.2926 25.9477 30.0234 26.2842 29.8214 26.5534H39.3788L39.8499 25.0054C39.5134 25.2747 38.9749 25.6785 38.5711 25.6785ZM42.3402 8.85222C42.3402 8.85222 42.4748 8.11188 43.1479 8.11188H50.013V25.6785C50.013 26.015 49.5418 26.5534 49.5418 26.5534H52.8398C52.8398 26.5534 52.3687 26.0823 52.3687 25.6785V8.11188H59.3011C59.9741 8.11188 60.1087 8.85222 60.1087 8.85222V7.30418H42.3402V8.85222ZM69.5315 7.30418H66.2335C66.2335 7.30418 66.7047 7.77531 66.7047 8.17914V25.6785C66.7047 26.0823 66.2335 26.5534 66.2335 26.5534H69.5315C69.5315 26.5534 69.0604 26.0823 69.0604 25.6785V8.17914C69.1277 7.77531 69.5315 7.30418 69.5315 7.30418ZM97.9339 8.17914C97.9339 7.77531 98.271 7.30418 98.271 7.30418H94.838C94.838 7.30418 95.3771 7.77531 95.3771 8.11188L88.7806 22.9863L82.1174 8.17914C81.9154 7.77531 82.1174 7.30418 82.1174 7.30418H79.0215C79.4927 7.57339 80.0987 8.24648 80.0312 8.71762L78.2812 25.6112C78.2139 26.2842 77.6081 26.5534 77.6081 26.5534H79.8292C79.8292 26.5534 79.1561 26.2842 79.2235 25.6785L80.7046 10.6021L87.9728 26.89L95.6458 9.79451L97.1938 25.6785C97.1938 26.0823 96.7899 26.4862 96.7899 26.4862H100.223C100.223 26.4862 99.7514 26.015 99.6846 25.6112L97.9339 8.17914ZM114.962 25.6785H109.646V17.6692H114.828C115.501 17.6692 115.636 18.3422 115.636 18.3422V16.0539C115.636 16.0539 115.434 16.7269 114.828 16.7269H109.646V8.17914H114.828C115.501 8.17914 115.636 8.85222 115.636 8.85222V7.30418H106.751C106.751 7.30418 107.222 7.77531 107.222 8.17914V25.6785C107.222 26.0823 106.751 26.5534 106.751 26.5534H115.77L116.241 25.0054C116.174 24.9382 115.636 25.6785 114.962 25.6785ZM121.02 8.85222C121.02 8.85222 121.155 8.11188 121.827 8.11188H128.693V25.6785C128.693 26.015 128.222 26.5534 128.222 26.5534H131.52C131.52 26.5534 131.048 26.0823 131.048 25.6785V8.11188H137.913C138.587 8.11188 138.721 8.85222 138.721 8.85222V7.30418H120.953V8.85222H121.02ZM152.384 25.6785H147.067V17.6692H152.25C152.922 17.6692 153.057 18.3422 153.057 18.3422V16.0539C153.057 16.0539 152.855 16.7269 152.25 16.7269H147.067V8.17914H152.25C152.922 8.17914 153.057 8.85222 153.057 8.85222V7.30418H144.173C144.173 7.30418 144.577 7.77531 144.577 8.17914V25.6785C144.577 26.0823 144.173 26.5534 144.173 26.5534H153.192L153.663 25.0054C153.596 24.9382 153.057 25.6785 152.384 25.6785ZM172.374 23.7267C172.374 23.7267 168.538 20.0921 166.99 17.2654C170.018 16.0539 170.624 13.4962 170.624 12.4193C170.624 9.25602 167.394 7.30418 164.028 7.30418H159.787C159.787 7.30418 160.259 7.77531 160.259 8.17914V25.6785C160.259 26.0823 159.787 26.5534 159.787 26.5534H163.086C163.086 26.5534 162.682 26.0823 162.682 25.6785V17.8711H164.23C167.999 23.0536 170.422 24.8708 170.422 24.8708C173.72 27.7649 176.681 26.4862 176.681 26.4862C175.335 26.4188 173.316 24.6689 172.374 23.7267ZM163.961 16.9288H162.682V8.17914H163.893C166.586 8.17914 168.201 10.6694 168.268 12.4193C168.336 15.3135 165.711 16.9288 163.961 16.9288ZM24.639 26.4862L23.7639 25.6785L12.8606 1.44862L11.3798 3.87161L11.7163 4.47735L2.63013 25.2074C2.2263 26.0823 1.14941 26.4862 1.14941 26.4862H4.11084C4.11084 26.4862 3.30318 26.1496 3.70701 25.2747L7.4761 16.7942H17.1008L20.8698 25.342C21.0718 25.8131 20.8026 26.4862 20.8026 26.4862H24.639ZM7.94724 15.65L12.2548 5.82347L16.6296 15.65H7.94724Z"></path>
</svg>

<svg xmlns="http://www.w3.org/2000/svg" width="178" height="29" fill="none" viewBox="0 0 178 29"><path fill="#fff" stroke="#fff" stroke-width=".792" d="M38.571 25.679h-5.923v-17.5c0-.27.27-.673.471-.875h-3.298c.202.202.472.606.472.875v17.5c0 .269-.27.605-.472.874h9.558l.47-1.548c-.336.27-.874.674-1.278.674Zm3.77-16.827s.134-.74.807-.74h6.865v17.566c0 .337-.471.875-.471.875h3.298s-.471-.47-.471-.875V8.113H59.3c.673 0 .808.74.808.74V7.304H42.34zm27.19-1.548h-3.297s.47.471.47.875v17.5c0 .403-.47.874-.47.874h3.297s-.47-.47-.47-.875V8.18c.067-.404.47-.875.47-.875Zm28.403.875c0-.404.337-.875.337-.875h-3.433s.54.471.54.808L88.78 22.986 82.117 8.18c-.202-.404 0-.875 0-.875h-3.096c.472.27 1.078.942 1.01 1.414l-1.75 16.893c-.067.673-.673.942-.673.942h2.221s-.673-.269-.605-.875l1.48-15.076 7.269 16.288 7.673-17.095 1.548 15.884c0 .403-.404.807-.404.807h3.433s-.472-.471-.538-.875zm17.028 17.5h-5.316v-8.01h5.182c.673 0 .808.673.808.673v-2.288s-.202.673-.808.673h-5.182V8.179h5.182c.673 0 .808.673.808.673V7.304h-8.885s.471.471.471.875v17.5c0 .403-.471.874-.471.874h9.019l.471-1.548c-.067-.067-.605.674-1.279.674Zm6.058-16.827s.135-.74.807-.74h6.866v17.566c0 .337-.471.875-.471.875h3.298s-.472-.47-.472-.875V8.113h6.865c.674 0 .808.74.808.74V7.304h-17.768v1.548zm31.364 16.827h-5.317v-8.01h5.183c.672 0 .807.673.807.673v-2.288s-.202.673-.807.673h-5.183V8.179h5.183c.672 0 .807.673.807.673V7.304h-8.884s.404.471.404.875v17.5c0 .403-.404.874-.404.874h9.019l.471-1.548c-.067-.067-.606.674-1.279.674Zm19.99-1.952s-3.836-3.635-5.384-6.462c3.028-1.211 3.634-3.769 3.634-4.846 0-3.163-3.23-5.115-6.596-5.115h-4.241s.472.471.472.875v17.5c0 .403-.472.874-.472.874h3.299s-.404-.47-.404-.875v-7.807h1.548c3.769 5.183 6.192 7 6.192 7 3.298 2.894 6.259 1.615 6.259 1.615-1.346-.067-3.365-1.817-4.307-2.76Zm-8.413-6.798h-1.279v-8.75h1.211c2.693 0 4.308 2.49 4.375 4.24.068 2.894-2.557 4.51-4.307 4.51ZM24.639 26.486l-.875-.808L12.86 1.448l-1.48 2.425.336.605-9.086 20.73c-.404.875-1.48 1.28-1.48 1.28h2.96s-.807-.337-.403-1.212l3.77-8.48H17.1l3.769 8.547c.202.471-.067 1.144-.067 1.144zM7.947 15.65l4.308-9.827 4.375 9.827z"/></svg>
